X:1
T:Title
L:1/8
M:4/4
I:linebreak $
K:A
V:1 treble nm="Voice"
V:1
"A" c3 c"E" BAGB |"A" AEEA EGAB | cBAc"E" BAGB |"A" AG E2 EGAB |"A" c3 c"E" BAGB |"A" AEEA EABc | %6
"D" d2 Bd"A" cBAc |1"E" BG"A" A2 EGAB :|2"E" BG"A" A2 EABc |:"D" d3 d"A" cBAc |"E" BFFE"D" FABc | %11
"E" dcBd"A" cBAc |"E" BA [E-B]2 [EB]ABc |"D" d3 d"A" cBAc |"E" BFFB"D" FABc |"E" dcBd"A" cBAc |1 %16
"E" BG"A" A2 EABc :|2"E" BG"A" A2 EABc |] %18
